X: 56
T: SAILING BACK OF WHIDDY
B: O'Neill's 56
M: C
L: 1/8
Z: 1999 by John Chambers <jc@trillian.mit.edu>
N: "With expression"
N: "Collected by J.O'Neill"
K:C
  C>DE>F G>E C2 | E>FG>c d>c B<G | e>dc>B A>G c2 | C>DE>F G>F E<D |
| C>DE>F G>E C2 | E>FG>c d>c B<G | e>dc>B A>G c2 | C>DE>F G>E D<C ||
|| C>D E<G D>F E<C | E<F G<c d>c B<G | e>d c>B AG Hc>c | C>D E>G D>F E<C ||


